images/g2logo.svg

<?xml version="1.0" encoding="UTF-8" standalone="no"?>
<svg
   xmlns:dc="http://purl.org/dc/elements/1.1/"
   xmlns:cc="http://creativecommons.org/ns#"
   xmlns:rdf="http://www.w3.org/1999/02/22-rdf-syntax-ns#"
   xmlns:svg="http://www.w3.org/2000/svg"
   xmlns="http://www.w3.org/2000/svg"
   xmlns:sodipodi="http://sodipodi.sourceforge.net/DTD/sodipodi-0.dtd"
   xmlns:inkscape="http://www.inkscape.org/namespaces/inkscape"
   version="1.1"
   viewBox="0 0 500 500"
   width="500.0pt"
   height="500.0pt"
   id="svg14"
   sodipodi:docname="glacier2mods_logo.svg"
   inkscape:version="0.92.4 (5da689c313, 2019-01-14)"
   inkscape:export-filename="Z:\Backup\Josh\HITMAN\Server\path6.png"
   inkscape:export-xdpi="383.81"
   inkscape:export-ydpi="383.81">
  <metadata
     id="metadata20">
    <rdf:RDF>
      <cc:Work
         rdf:about="">
        <dc:format>image/svg+xml</dc:format>
        <dc:type
           rdf:resource="http://purl.org/dc/dcmitype/StillImage" />
      </cc:Work>
    </rdf:RDF>
  </metadata>
  <defs
     id="defs18" />
  <sodipodi:namedview
     pagecolor="#ffffff"
     bordercolor="#666666"
     borderopacity="1"
     objecttolerance="10"
     gridtolerance="10"
     guidetolerance="10"
     inkscape:pageopacity="0"
     inkscape:pageshadow="2"
     inkscape:window-width="1920"
     inkscape:window-height="1027"
     id="namedview16"
     showgrid="false"
     inkscape:zoom="1"
     inkscape:cx="318.11593"
     inkscape:cy="332.16607"
     inkscape:window-x="-8"
     inkscape:window-y="10"
     inkscape:window-maximized="1"
     inkscape:current-layer="svg14" />
  <path
     d="m 250.09,99.05 c 34.69,20.06 69.45,39.99 104.07,60.15 l -0.54,0.33 c -15.6,9.14 -31.29,18.11 -46.91,27.21 -1.68,0.97 -3.44,1.78 -5.24,2.52 -1.14,-0.78 -2.29,-1.55 -3.48,-2.25 -16.07,-9.21 -32.12,-18.49 -48.15,-27.78 0.53,-20.03 0.03,-40.13 0.25,-60.18 z"
     id="path4"
     inkscape:connector-curvature="0"
     style="display:inline;fill:#0f7e6a;fill-opacity:1" />
  <path
     d="m 93.84,129.35 c 2.81,1.4 5.52,2.97 8.22,4.58 14.78,8.6 29.65,17.06 44.45,25.63 -0.15,3.15 -0.21,6.29 -0.19,9.44 0.07,36.65 -0.07,73.35 0.07,109.99 3.01,-1.45 5.88,-3.16 8.75,-4.86 14.2,-8.26 28.44,-16.45 42.64,-24.71 17.38,-9.98 34.74,-19.99 52.1,-30.02 0.02,20.05 -0.02,40.1 0.01,60.15 14.9,-8.68 29.84,-17.28 44.79,-25.87 2.35,-1.31 4.68,-2.63 6.87,-4.2 3.25,1.28 6.06,3.19 9.09,4.89 14.35,8.26 28.65,16.62 42.99,24.9 0.11,-39.91 0.14,-79.83 -0.01,-119.74 l 0.54,-0.33 c 17.22,-10.09 34.52,-20.11 51.92,-29.89 0.16,57.54 0,115.14 0.08,172.69 0.04,2.6 -0.01,5.18 -0.18,7.77 -14.54,8.57 -29.23,16.9 -43.85,25.35 -37.31,21.51 -74.77,43.35 -112.17,64.68 -3.46,-1.71 -6.71,-3.76 -10.06,-5.68 -23.25,-13.43 -46.55,-26.76 -69.75,-40.26 -25.35,-14.77 -50.91,-29.23 -76.22,-44.05 -0.18,-2.61 -0.23,-5.2 -0.18,-7.81 0.09,-57.53 -0.1,-115.13 0.09,-172.65 z"
     id="path6"
     inkscape:connector-curvature="0"
     style="display:inline;fill:#1b6b5e;fill-opacity:1;opacity:1" />
  <path
     d="M 146.51 159.56 C 163.61 169.42 180.66 179.38 197.79 189.18 C 197.75 209.26 197.78 229.34 197.78 249.42 C 183.58 257.68 169.34 265.87 155.14 274.13 C 152.27 275.83 149.40 277.54 146.39 278.99 C 146.25 242.35 146.39 205.65 146.32 169.00 C 146.30 165.85 146.36 162.71 146.51 159.56 Z"
     id="path8"
     style="fill:#0f7e6a;fill-opacity:1"
     fill="#7fecd6" />
  <path
     d="M 249.84 159.23 C 265.87 168.52 281.92 177.80 297.99 187.01 C 299.18 187.71 300.33 188.48 301.47 189.26 C 301.03 202.49 301.40 215.76 301.28 229.00 C 301.41 235.81 300.97 242.69 301.55 249.48 C 299.36 251.05 297.03 252.37 294.68 253.68 C 279.73 262.27 264.79 270.87 249.89 279.55 C 249.86 259.50 249.90 239.45 249.88 219.40 C 232.52 229.43 215.16 239.44 197.78 249.42 C 197.78 229.34 197.75 209.26 197.79 189.18 C 215.17 179.24 232.48 169.19 249.84 159.23 Z"
     fill="#00daae"
     id="path10"
     style="fill:#00daae;fill-opacity:1" />
  <path
     d="M 353.62 159.53 C 353.77 199.44 353.74 239.36 353.63 279.27 C 339.29 270.99 324.99 262.63 310.64 254.37 C 307.61 252.67 304.80 250.76 301.55 249.48 C 300.97 242.69 301.41 235.81 301.28 229.00 C 301.40 215.76 301.03 202.49 301.47 189.26 C 303.27 188.52 305.03 187.71 306.71 186.74 C 322.33 177.64 338.02 168.67 353.62 159.53 Z"
     fill="#40e3c2"
     id="path12"
     style="fill:#08ac8c;fill-opacity:1" />
</svg>

<?xml version="1.0" encoding="UTF-8" standalone="no"?>
<!DOCTYPE svg PUBLIC "-//W3C//DTD SVG 1.1//EN" "http://www.w3.org/Graphics/SVG/1.1/DTD/svg11.dtd">
<svg xmlns="http://www.w3.org/2000/svg" version="1.1" viewBox="0 0 500 500" width="500.0pt" height="500.0pt">
<path d="M 0.00 0.00 L 500.00 0.00 L 500.00 500.00 L 0.00 500.00 L 0.00 0.00 Z" fill="#ffffff" />
<path d="M 250.09 99.05 C 284.78 119.11 319.54 139.04 354.16 159.20 L 353.62 159.53 C 338.02 168.67 322.33 177.64 306.71 186.74 C 305.03 187.71 303.27 188.52 301.47 189.26 C 300.33 188.48 299.18 187.71 297.99 187.01 C 281.92 177.80 265.87 168.52 249.84 159.23 C 250.37 139.20 249.87 119.10 250.09 99.05 Z" fill="#7fecd6" />
<path d="M 93.84 129.35 C 96.65 130.75 99.36 132.32 102.06 133.93 C 116.84 142.53 131.71 150.99 146.51 159.56 C 146.36 162.71 146.30 165.85 146.32 169.00 C 146.39 205.65 146.25 242.35 146.39 278.99 C 149.40 277.54 152.27 275.83 155.14 274.13 C 169.34 265.87 183.58 257.68 197.78 249.42 C 215.16 239.44 232.52 229.43 249.88 219.40 C 249.90 239.45 249.86 259.50 249.89 279.55 C 264.79 270.87 279.73 262.27 294.68 253.68 C 297.03 252.37 299.36 251.05 301.55 249.48 C 304.80 250.76 307.61 252.67 310.64 254.37 C 324.99 262.63 339.29 270.99 353.63 279.27 C 353.74 239.36 353.77 199.44 353.62 159.53 L 354.16 159.20 C 371.38 149.11 388.68 139.09 406.08 129.31 C 406.24 186.85 406.08 244.45 406.16 302.00 C 406.20 304.60 406.15 307.18 405.98 309.77 C 391.44 318.34 376.75 326.67 362.13 335.12 C 324.82 356.63 287.36 378.47 249.96 399.80 C 246.50 398.09 243.25 396.04 239.90 394.12 C 216.65 380.69 193.35 367.36 170.15 353.86 C 144.80 339.09 119.24 324.63 93.93 309.81 C 93.75 307.20 93.70 304.61 93.75 302.00 C 93.84 244.47 93.65 186.87 93.84 129.35 Z" fill="#b2f4e7" />
<path d="M 146.51 159.56 C 163.61 169.42 180.66 179.38 197.79 189.18 C 197.75 209.26 197.78 229.34 197.78 249.42 C 183.58 257.68 169.34 265.87 155.14 274.13 C 152.27 275.83 149.40 277.54 146.39 278.99 C 146.25 242.35 146.39 205.65 146.32 169.00 C 146.30 165.85 146.36 162.71 146.51 159.56 Z" fill="#7fecd6" />
<path d="M 249.84 159.23 C 265.87 168.52 281.92 177.80 297.99 187.01 C 299.18 187.71 300.33 188.48 301.47 189.26 C 301.03 202.49 301.40 215.76 301.28 229.00 C 301.41 235.81 300.97 242.69 301.55 249.48 C 299.36 251.05 297.03 252.37 294.68 253.68 C 279.73 262.27 264.79 270.87 249.89 279.55 C 249.86 259.50 249.90 239.45 249.88 219.40 C 232.52 229.43 215.16 239.44 197.78 249.42 C 197.78 229.34 197.75 209.26 197.79 189.18 C 215.17 179.24 232.48 169.19 249.84 159.23 Z" fill="#00daae" />
<path d="M 353.62 159.53 C 353.77 199.44 353.74 239.36 353.63 279.27 C 339.29 270.99 324.99 262.63 310.64 254.37 C 307.61 252.67 304.80 250.76 301.55 249.48 C 300.97 242.69 301.41 235.81 301.28 229.00 C 301.40 215.76 301.03 202.49 301.47 189.26 C 303.27 188.52 305.03 187.71 306.71 186.74 C 322.33 177.64 338.02 168.67 353.62 159.53 Z" fill="#40e3c2" />
</svg>
